X: 1
T: Kerry Fling
M: 4/4
L: 1/8
R: reel
K: Dmaj
E2EF A2AB|ceec BAF2|f2 ec ABcA|ecBA FAAF|
E2EF A2AB|ceec BAF2|f2 ec ABcA|1 ecBc A2AF:|2 ecBc A4||
|:ecef a2 af|ecBA FAAB|cBAB cBBA|cABA ceaf|
ecef a2 af|ecBA FAAB|cBAB cBBA|1 ceBc A4:|2 ceBc A2AF||
